!!!COM: Fanny (Mendelssohn) Hensel
!!!CNT: Deutsch
!!!TXO: Deutsch
!!!OTL: "Die fru2hen Gra2ber"
!!!LYR: Klopstock, Friedrich Gottlieb
!!!OPR: 
!!!OPS: Op. 9
!!!ONM: No. 4
!!!ENC: Emily Thomas
!!!YOR: Hensel: Ausgewa2hlte Lieder fu2r Singstimme und Klavier
!!!YOR: Breitkopf & Hartel, 1994
!!!ODT: 1828/
!!NB: Vocal melody and text encoded.
**kern	**silbe
=1-	=1
*clefG2	*
*k[b-e-a-d-]	*
*M4/4	*
*MM[Lento e largo]	*
1r	.
=2	=2
1r	.
=3	=3
1r	.
=4	=4
2r	.
4r	.
{4e-	{Will-
=5	=5
4dd-	kom-
8b-	-men,
8g	o
4f	sil-
8e-	-ber-
8d-	-ner
=6	=6
4c}	Mond,}
4r	.
2r	.
=7	=7
{2.ee-	{scho2-
4a-	-ner
=8	=8
4a-	stil-
8b-	-ler
8cc	Ge-
4.dd-	-fa2rht
8f	der
=9	=9
1g-	nacht,
=10	=10
2f}	|}
4r	.
{8b-	du
8f	ent-
=11	=11
4g-	-fliehst,
4r	.
4.cc	ei-
8f	-le
=12	=12
4dd-	nicht,
4r	.
4.b-	blieb,
8g	Ge-
=13	=13
2.ee-	dan-
4cc	-ken-
=14	=14
4a-}	-freund!}
4r	.
2r	.
=15	=15
1r	.
=16	=16
{4dd-	{Se-
8b-	-het,
8a-	er
4g	bleibt,
8a-	das
8b-	Ge-
=17	=17
2e-	wo2lk
[2a-	wall-
=18	=18
4a-]	|
8ff	|
8ee-	|
8dd-	|
8a-	|
8f	|
8g	|
=19	=19
2.a-	|
8e-	-te
8d-	nur
=20	=20
2c}	in.}
2r	.
==	==
*-	*-
